X:5757
T:Gan Ainm
R:Jig
S:Maire O'Keeffe, Kerry (fiddle)
D:Session tape - Milltown Malbay 1991
Z:Bernie Stocks
M:6/8
K:G
BAG E2D | EGD EGA | ~B3 GED | EAA ABc | BAG E2D | EGD EGA | BAG EGD | EGG G3 ::
GBd e2d | efg B2A | GBd egd | eaa ega | bag age | ged B2A | ~B3 GED | EGG G3 :|
